X:781
T:Pass About the Flagon
R:Slow Strathspey
B:The Athole Collection
M:C
L:1/8
Q:1/4=140
K:G Minor
D2 G<G F>D =E<C|D2 BB A<c|d<d c>B A>GF>G|A<cA<d c>A G2:|
D<G G>=E F>_ED>C|Dd c>BA>G|A<f d>^c d>DF>G|A<cA<d c>A G2|
D<G G>=E F>_ED>C|Dd c>BA>G|f>=ed>^c d>DF>G|A<c A<d c>A G2||
